X:1
T:Alcyone
T:Menuet pour les bergers et les bergeres
C:Marin Marais
Z:Forgeot Eric <eforgeot@yahoo.fr> abcusers 2002-7-11
B:XVIIIeme
M:3/4
L:1/4
Q:C4=60
K:C
a f g | a2 d | g/f/ e d/^c/ | d2 A |
a f g | a>_b a | g f>e | e3 :|
|: f>g f | c>d c | A>_B A | A F G |
A f A | B B>^c | d ^c>d | d3 :|
